X:1
T:Title
%%score { ( 1 3 4 ) | 2 }
L:1/8
M:3/4
K:Eb
V:1 treble nm="Grand Piano"
V:3 treble 
V:4 treble 
V:2 bass 
V:1
 z2 z2[Q:1/4=100] B,2 | G4 z2 | F2 F2 E2 | z2 z D DA | A4 z2 | z2 z G AB | d2 c2 A2 | z2 z _G =Gc | %8
 c4 z2 | e4 z2 | d2 A2 B2 | d4 z2 | B4 z2 | z2 z F G=A | c2 B2 B2 | z2 z G Fc |[M:5/8] B-B- B3 | %17
[M:4/4] z2 B6 | B>E D2 [DA]2 [DA]2 | z2 d6 | B2 G6 | G2 F2 A2 d2 | c2 e2 B4 | G2 A2- AA G2 | %24
[M:3/4] F2 E4- | E2 z2 z2 |] %26
V:2
 z6 | E,,2 [E,G,]2 [E,G,B,]2 | G,,2 [E,G,B,]2 [E,G,B,]2 | F,,2 [F,A,]2 [F,A,B,]2 | %4
 B,,2 [F,B,]2 z2 | B,,2 [A,B,]2 [A,B,D]2 | B,,2 [A,B,D]2 [A,B,D]2 | E,,2 [E,G,]2 [E,G,B,]2 | %8
 G,,2 [E,G,]2 z2 | E,,2 [E,G,]2 [E,G,B,]2 | F,,2 [A,B,D]2 [A,B,D]2 | B,,2 [F,A,]2 [F,A,B,]2 | %12
 G,,2 [E,G,]2 z2 | C,2 [F,=A,]2 [F,A,E]2 | D,2 [F,B,D]2 [F,B,D]2 | C,2 [F,=A,]2 [F,A,E]2 | %16
[M:5/8] B,,2[K:treble] [B,D]3 |[M:4/4] [B,DA]2[K:bass] [E,E]2 [E,E]2 [E,E]2 | %18
 [G,B,E]2 [F,A,B,]2 [B,,F,]2 [B,,F,]2 | [B,,F,]2 [F,B,]2 [F,B,]2 [B,,B,]2 | %20
 [B,,B,]2 [E,B,E]2 [E,B,]2 [E,B,]2 | [E,B,E]2[K:treble] [A,CE]2 [A,CE]2 [=A,D_G]2 | %22
 [=A,E_G]2 [B,E=G]2 [B,EG]4 | [B,E]2 [F,CE]2- [F,CE][F,CE] [B,D]2 |[M:3/4] [B,,A,B,]2 [E,G,B,]4- | %25
 [E,G,B,]2 z2 z2 |] %26
V:3
 x6 | z2 z _G =GD | x6 | E4 z2 | z2 D2 B,2 | A4 z2 | x6 | G4 z2 | z2 B,2 B2 | z2 z d ec | x6 | %11
 z2 z c dc | z2 B,2 G2 | F4 z2 | x6 | A4 z2 |[M:5/8] z2 F3 |[M:4/4] B2 G2 G2 z z/ c/ | x8 | %19
 [DB]2 A2 A2 z z/ c/ | D->[DA] z2 E2 E2 | x8 | x8 | x8 |[M:3/4] x6 | x6 |] %26
V:4
 x6 | z2 B,2 z2 | x6 | z2 B,2 z2 | x6 | z2 D2 z2 | x6 | z2 B,2 z2 | x6 | z2 B,2 z2 | x6 | %11
 z2 B,2 z2 | x6 | z2 E2 z2 | x6 | z2 E2 z2 |[M:5/8] x5 |[M:4/4] z4 z2 G2 | x8 | z4 z2 A2 | x8 | %21
 x8 | x8 | x8 |[M:3/4] x6 | x6 |] %26

